!!!OTL: Away in a Manger
!!!COM: Murray, James
!!!ODT: 1887
!!!YOR: The Christmas Fake Book, p. 13
!!!YOY: 1990
!!!AST: Christmas song
!!!YEC: Brian Luke, 2001
**kern	**harm
*k[b-]	*k[b-]
*M3/4	*M3/4
*F:	*F:
*>A	*>A
4cc	.
=1	=1
4.cc	I
8b-	.
4a	.
=2	=2
4a	.
4g	.
4f	.
=3	=3
4f	IV
4e	.
4d	.
=4	=4
2c	I
4c	.
=5	=5
4.c	V7
8d	.
4c	.
=6	=6
4c	.
4g	.
4e	.
=7	=7
4d	I
4c	.
4f	.
=8	=8
2a	.
4cc	.
=9	=9
4.cc	.
8b-	.
4a	.
=10	=10
4a	.
4g	.
4f	.
=11	=11
4f	IV
4e	.
4d	.
=12	=12
2c	I
4c	.
=13	=13
4.b-	V7
8a	.
4g	.
=14	=14
4a	I
4g	.
4f	.
=15	=15
4g	ii
4d	.
4e	V7
=16	=16
2f	I;
*-	*-
